assets/icons/vk.svg

<svg width="25" height="25" viewBox="0 0 25 25" fill="none" xmlns="http://www.w3.org/2000/svg">
<path d="M21.077 16.7774C21.0552 16.7305 21.0348 16.6915 21.016 16.6603C20.7037 16.0978 20.1069 15.4074 19.2259 14.5889L19.2073 14.5702L19.198 14.561L19.1886 14.5516H19.1791C18.7793 14.1705 18.5261 13.9142 18.4201 13.783C18.2261 13.5331 18.1827 13.2801 18.2887 13.0237C18.3636 12.8301 18.645 12.4211 19.1322 11.7962C19.3884 11.465 19.5914 11.1996 19.7413 10.9996C20.8222 9.56252 21.2909 8.6442 21.1471 8.24429L21.0913 8.15084C21.0538 8.09458 20.9569 8.04311 20.8009 7.99617C20.6445 7.94933 20.4446 7.94158 20.2009 7.9728L17.5019 7.99144C17.4582 7.97595 17.3957 7.97739 17.3144 7.99617C17.2332 8.01494 17.1925 8.02436 17.1925 8.02436L17.1456 8.04783L17.1083 8.07603C17.077 8.09468 17.0426 8.12747 17.0051 8.17434C16.9678 8.22105 16.9366 8.27587 16.9116 8.33834C16.6178 9.09433 16.2837 9.79722 15.9087 10.447C15.6775 10.8344 15.4652 11.1702 15.2713 11.4545C15.0777 11.7387 14.9152 11.9481 14.7841 12.0823C14.6528 12.2166 14.5343 12.3243 14.4279 12.4056C14.3217 12.4869 14.2406 12.5213 14.1844 12.5087C14.1281 12.4961 14.0751 12.4837 14.0249 12.4712C13.9375 12.4149 13.8672 12.3384 13.8142 12.2416C13.7609 12.1447 13.7251 12.0229 13.7063 11.876C13.6877 11.7291 13.6767 11.6027 13.6735 11.4965C13.6706 11.3904 13.6719 11.2402 13.6783 11.0466C13.6848 10.8528 13.6877 10.7217 13.6877 10.653C13.6877 10.4155 13.6923 10.1578 13.7016 9.87978C13.7111 9.60175 13.7187 9.38146 13.7251 9.21917C13.7315 9.05672 13.7344 8.88484 13.7344 8.70365C13.7344 8.52245 13.7234 8.38035 13.7016 8.27722C13.6801 8.17421 13.647 8.07423 13.6035 7.97729C13.5596 7.88046 13.4955 7.80555 13.4113 7.75237C13.327 7.69926 13.2222 7.65712 13.0974 7.6258C12.7662 7.55086 12.3445 7.51032 11.8321 7.50402C10.67 7.49155 9.92335 7.56658 9.59221 7.72904C9.46101 7.79767 9.34228 7.89145 9.23612 8.01008C9.12363 8.14759 9.10794 8.22263 9.18915 8.23497C9.56408 8.29113 9.82951 8.42549 9.98572 8.6379L10.042 8.75046C10.0858 8.83167 10.1295 8.97544 10.1733 9.18158C10.217 9.38773 10.2452 9.61576 10.2576 9.86556C10.2888 10.3217 10.2888 10.7122 10.2576 11.0371C10.2263 11.362 10.1968 11.615 10.1686 11.7962C10.1404 11.9774 10.0982 12.1242 10.042 12.2367C9.98572 12.3491 9.94827 12.4179 9.92949 12.4428C9.91075 12.4677 9.89512 12.4835 9.88272 12.4896C9.80151 12.5208 9.71705 12.5366 9.62963 12.5366C9.54209 12.5366 9.43593 12.4928 9.311 12.4053C9.1861 12.3178 9.05647 12.1976 8.92212 12.0445C8.78777 11.8914 8.63624 11.6774 8.46749 11.4025C8.29887 11.1276 8.12391 10.8028 7.94271 10.4279L7.7928 10.156C7.69908 9.98114 7.57107 9.72648 7.40861 9.39229C7.24606 9.05796 7.10239 8.73457 6.97749 8.42217C6.92756 8.29097 6.85256 8.19108 6.7526 8.12235L6.7057 8.09415C6.67451 8.0692 6.62445 8.04271 6.55578 8.01448C6.48701 7.98629 6.41526 7.96607 6.34022 7.95363L3.77234 7.97227C3.50993 7.97227 3.33189 8.03172 3.23814 8.15045L3.20062 8.20661C3.18188 8.23789 3.17242 8.28785 3.17242 8.35662C3.17242 8.42536 3.19117 8.50972 3.22869 8.6096C3.60355 9.49063 4.01121 10.3403 4.45166 11.1588C4.8921 11.9772 5.27485 12.6365 5.59965 13.1361C5.92452 13.636 6.25566 14.1078 6.59307 14.5512C6.93048 14.9949 7.15383 15.2792 7.2631 15.4041C7.37251 15.5292 7.45844 15.6227 7.52091 15.6852L7.75525 15.9101C7.90519 16.0601 8.12539 16.2397 8.41592 16.449C8.70652 16.6583 9.02824 16.8645 9.38124 17.0677C9.73431 17.2706 10.1451 17.4362 10.6137 17.5642C11.0823 17.6924 11.5384 17.7438 11.982 17.719H13.0598C13.2784 17.7001 13.444 17.6314 13.5565 17.5128L13.5938 17.4658C13.6189 17.4285 13.6423 17.3706 13.664 17.2926C13.6859 17.2145 13.6968 17.1285 13.6968 17.0349C13.6904 16.7663 13.7109 16.5242 13.7576 16.3087C13.8043 16.0932 13.8576 15.9308 13.9171 15.8214C13.9766 15.7121 14.0438 15.6198 14.1185 15.545C14.1935 15.4701 14.2468 15.4247 14.2781 15.4091C14.3093 15.3934 14.3341 15.3827 14.3529 15.3763C14.5028 15.3263 14.6793 15.3747 14.8825 15.5217C15.0856 15.6685 15.2761 15.8498 15.4543 16.0653C15.6323 16.2809 15.8463 16.5229 16.0962 16.7915C16.3462 17.0602 16.5648 17.2599 16.7522 17.3913L16.9395 17.5038C17.0647 17.5788 17.2271 17.6476 17.4271 17.71C17.6267 17.7725 17.8016 17.7881 17.9518 17.7569L20.3509 17.7195C20.5882 17.7195 20.7728 17.6802 20.9038 17.6022C21.035 17.5241 21.113 17.4381 21.1381 17.3445C21.1632 17.2508 21.1645 17.1445 21.1429 17.0257C21.1207 16.9072 21.0988 16.8243 21.077 16.7774Z" fill="#111111"/>
</svg>

<svg xmlns="http://www.w3.org/2000/svg" width="25" height="25" fill="none" viewBox="0 0 25 25"><path fill="#111" d="M21.077 16.777a1 1 0 0 0-.061-.117q-.469-.844-1.79-2.071l-.019-.019-.009-.009-.01-.01h-.009q-.6-.57-.759-.768-.29-.375-.131-.76.113-.29.843-1.227.385-.496.61-.796 1.62-2.156 1.405-2.756l-.056-.093q-.056-.084-.29-.155t-.6-.023l-2.7.018a.35.35 0 0 0-.187.005l-.122.028-.046.024-.038.028a.4.4 0 0 0-.103.098.7.7 0 0 0-.093.164 15 15 0 0 1-1.003 2.109q-.348.58-.638 1.008a5 5 0 0 1-.487.627q-.197.202-.356.324-.159.12-.244.103l-.16-.038a.6.6 0 0 1-.21-.23 1 1 0 0 1-.108-.365 4 4 0 0 1-.028-.83q.01-.29.01-.393 0-.356.014-.773l.023-.66q.01-.245.01-.516 0-.273-.033-.427a1.5 1.5 0 0 0-.098-.3.5.5 0 0 0-.193-.225 1.1 1.1 0 0 0-.314-.126q-.495-.113-1.265-.122-1.743-.018-2.24.225-.197.103-.356.281-.168.207-.047.225.562.084.797.403l.056.112q.066.122.131.432.066.309.085.684.045.684 0 1.171-.047.487-.09.76a1.5 1.5 0 0 1-.239.646.2.2 0 0 1-.046.047.7.7 0 0 1-.253.047q-.132 0-.319-.132a2.3 2.3 0 0 1-.389-.36 5 5 0 0 1-.455-.643q-.252-.412-.524-.974l-.15-.272q-.141-.263-.384-.764a15 15 0 0 1-.432-.97.6.6 0 0 0-.224-.3l-.047-.028a.6.6 0 0 0-.15-.08 1 1 0 0 0-.216-.06l-2.568.018q-.393 0-.534.178l-.037.057a.3.3 0 0 0-.029.15q0 .103.057.253.562 1.32 1.223 2.549.66 1.227 1.148 1.977t.993 1.415q.505.666.67.853.164.188.258.281l.234.225q.225.225.66.539.437.314.966.619.53.304 1.233.496.702.192 1.368.155h1.078q.328-.029.496-.206l.038-.047a.6.6 0 0 0 .07-.173 1 1 0 0 0 .033-.258 3 3 0 0 1 .06-.726q.07-.324.16-.488a1.2 1.2 0 0 1 .361-.412l.075-.033q.225-.075.53.146.304.22.571.543t.642.726.656.6l.188.113q.187.113.487.206.3.094.525.047l2.399-.038q.356 0 .553-.117.196-.117.234-.258a.7.7 0 0 0 .005-.318 1.2 1.2 0 0 0-.066-.249"/></svg>
